icons/unity-panel/24x24/panel/audio-volume-muted-panel.svg

<?xml version="1.0" encoding="UTF-8" standalone="no"?>
<svg
   viewBox="0 0 24 24"
   version="1.1"
   id="svg4"
   sodipodi:docname="audio-volume-muted-panel.svg"
   inkscape:version="1.1.1 (3bf5ae0d25, 2021-09-20)"
   xmlns:inkscape="http://www.inkscape.org/namespaces/inkscape"
   xmlns:sodipodi="http://sodipodi.sourceforge.net/DTD/sodipodi-0.dtd"
   xmlns="http://www.w3.org/2000/svg"
   xmlns:svg="http://www.w3.org/2000/svg">
  <defs
     id="defs8" />
  <sodipodi:namedview
     id="namedview6"
     pagecolor="#ffffff"
     bordercolor="#666666"
     borderopacity="1.0"
     inkscape:pageshadow="2"
     inkscape:pageopacity="0.0"
     inkscape:pagecheckerboard="0"
     showgrid="false"
     inkscape:zoom="22.166667"
     inkscape:cx="11.977444"
     inkscape:cy="12"
     inkscape:window-width="1852"
     inkscape:window-height="1043"
     inkscape:window-x="1434"
     inkscape:window-y="0"
     inkscape:window-maximized="1"
     inkscape:current-layer="svg4" />
  <path
     id="path857"
     style="color:#000000;fill:#ffffff;-inkscape-stroke:none;opacity:0.5"
     d="M 11.99201,3 7.2769889,8.0000003 H 4.2047233 L 4.0582389,8.2382815 C 2.652614,10.528272 2.6425563,13.448901 4.0562889,15.761719 L 4.2027733,16 H 5.870742 l 1,-1 4.113281,-4.113281 1,-0.9999999 z m 7.646306,0.6464847 -1.654295,1.6542968 -0.705079,0.7050782 -2.294922,2.2949218 -0.707031,0.7070313 -2.292969,2.2929682 -1,1 -2.9960935,2.996094 -0.7070313,0.707031 -3.6425781,3.642578 0.7070312,0.707032 L 7.9879265,16.710938 11.99201,21 l -0.008,-8.285156 2.898438,-2.8984375 c 1.020302,1.7116245 0.77051,3.8076155 -0.751953,5.3300775 L 13.776989,15.5 l 0.707032,0.707031 0.353515,-0.353515 c 1.880258,-1.880258 2.132004,-4.63652 0.763672,-6.7558595 l 2.34375,-2.34375 C 19.317539,8.4302574 19.98402,10.220917 19.98402,12 c 0,2.10185 -0.927175,4.220143 -2.853515,6.146484 l 0.707031,0.707032 C 19.91119,16.779861 20.98402,14.398146 20.98402,12 c 0,-2.0588606 -0.795425,-4.1033497 -2.332031,-5.9531247 l 1.693359,-1.6933594 z"
     sodipodi:nodetypes="ccccccccccccccccccccccccccsccsccsccsccc" />
</svg>

<svg version="1.1" viewBox="0 0 24 24" xmlns="http://www.w3.org/2000/svg">
 <path d="m11.992 3-4.715 5h-3.0723l-0.14648 0.23828c-1.4056 2.29-1.4157 5.2106-0.00195 7.5234l0.14648 0.23828h1.668l6.1133-6.1133zm7.6463 0.64648-16 16 0.70703 0.70703 3.6426-3.6426 4.0041 4.2891-8e-3 -8.2852 2.8984-2.8984c1.0203 1.7116 0.77051 3.8076-0.75195 5.3301l-0.35351 0.35352 0.70703 0.70703 0.35352-0.35352c1.8803-1.8803 2.132-4.6365 0.76367-6.7559l2.3438-2.3438c1.3726 1.6764 2.0391 3.467 2.0391 5.2461 0 2.1018-0.92718 4.2201-2.8535 6.1465l0.70703 0.70703c2.0737-2.0737 3.1465-4.4554 3.1465-6.8535 0-2.0589-0.79542-4.1033-2.332-5.9531l1.6934-1.6934z" color="#000000" fill="#fff" opacity=".5" style="-inkscape-stroke:none"/>
</svg>
